images_elementary_svg/cmd/sc_validation.svg

<svg viewBox="0 0 16 16" xmlns="http://www.w3.org/2000/svg" xmlns:xlink="http://www.w3.org/1999/xlink"><linearGradient id="a" gradientTransform="matrix(.59435835 0 0 .59991399 -19.26472 -.032551)" gradientUnits="userSpaceOnUse" x1="25.132275" x2="25.132275" y1="15.499894" y2="48.395687"><stop offset="0" stop-color="#fafafa"/><stop offset="1" stop-color="#e2e1de"/></linearGradient><radialGradient id="b" cx="23.896" cy="3.99" gradientTransform="matrix(0 .87966 -1.1611 0 12.633 -21.084)" gradientUnits="userSpaceOnUse" r="20.396999"><stop offset="0" stop-color="#f8b17e"/><stop offset=".26238" stop-color="#e35d4f"/><stop offset=".66094" stop-color="#c6262e"/><stop offset="1" stop-color="#690b54"/></radialGradient><linearGradient id="c" gradientUnits="userSpaceOnUse" x1="5.928178" x2="5.928178" y1="15.732509" y2=".290015"><stop offset="0" stop-color="#791235"/><stop offset="1" stop-color="#dd3b27"/></linearGradient><linearGradient id="d" gradientTransform="matrix(.74324 0 0 .74322 -38.23 10.609)" gradientUnits="userSpaceOnUse" x1="63.396999" x2="63.396999" y1="-12.489" y2="5.4676"><stop offset="0" stop-color="#fff"/><stop offset="1" stop-color="#fff" stop-opacity="0"/></linearGradient><g transform="matrix(-1 0 0 1 16 2)"><rect fill="url(#a)" height="4" rx=".423727" ry=".491478" stroke-width="1.33333" width="5" x="10.5" y="-1.5"/><path d="m0 0v1.0195312 13.9804688 1h16v-1-14.5c.000384-.2763015-.223699-.5003844-.5-.5zm15.001953.99804688v14.00195312h-14.001953v-13.9863281c1.29591-.00644 12.394149-.015625 14.001953-.015625z" fill="#030303" opacity=".32" transform="translate(0 -2)"/><g transform="translate(-1.001953 1.001953)"><rect fill="url(#a)" height="4" rx=".423727" ry=".491478" stroke-width="1.33333" width="11" x="3.501953" y="-.501953"/><path d="m3.001953-.99999998v1.0195312 2.98046878 1h11.998047v-1-3.49999998c.000384-.2763015-.223699-.50038442-.5-.5zm11 .99804688v3.0019531l-10 .0000031v-2.98633118c1.29591-.00644 8.392196-.015625 10-.01562502z" fill="#030303" opacity=".32"/></g><g transform="translate(-1.003906 9.003906)"><rect fill="url(#a)" height="4.001954" rx=".423727" ry=".491478" stroke-width="1.33333" width="10.998047" x="3.503906" y="-1.503906"/><path d="m3.003906-.0039061v1.0195312 2.9804688 1l11.998047.00195v-1-3.5c.000384-.2763015-.223699-.5003844-.5-.5zm11 .99999998v3.00195312l-10-.00195v-2.9863312c1.29591-.00644 8.392196-.0136719 10-.0136719z" fill="#030303" opacity=".32" transform="translate(0 -2)"/></g><path d="m1.9690878-1.4984435c.1251807-.012518.2480142.048508.3129517.1658644l2.7265916 5.0189621 1.7548765-1.4028058c.1564758-.086062.3505058-.031295.4365675.1267454l.7878558 1.0155282c.086062.1564758.028166.3520704-.1283102.4381321l-3.2061897 2.6632186c-.0367718.0203418-.0751084.0312951-.1142274.035207-.1275278.0156476-.2581851-.0430308-.3231225-.1642996l-3.67874705-6.76992644c-.0860614-.15647583-.02816565-.35207061.12831018-.43813232l1.17904537-.65250424c.039119-.021124.082932-.033642.1251806-.037554z" fill="#9cde4a" stroke="#5ca12a" stroke-linecap="round" stroke-linejoin="round"/><g transform="matrix(-.43424873 0 0 .43424873 7.229987 6.77)"><path d="m8 .50183c-4.1372 0-7.4982 3.361-7.4982 7.4982.00003 4.137 3.361 7.498 7.4982 7.498 4.137 0 7.498-3.361 7.498-7.498 0-4.1372-3.361-7.4982-7.498-7.4982z" fill="url(#b)" stroke="url(#c)" stroke-linecap="round" stroke-linejoin="round" stroke-width="2.302828"/><path d="m14.5 7.9998c0 3.5902-2.91 6.5002-6.4999 6.5002s-6.5001-2.91-6.5001-6.5002c0-3.5898 2.9102-6.4998 6.5001-6.4998s6.4999 2.91 6.4999 6.4998z" fill="none" opacity=".4" stroke="url(#d)" stroke-width="2.302828"/><path d="m2.8324477 8.5895468h10.3627243v-2.3028277h-10.3627243z" opacity=".2"/><path d="m2.8324477 9.7409607h10.3627243v-2.3028277h-10.3627243z" fill="#fff"/></g></g></svg>

<?xml version="1.0" encoding="UTF-8" standalone="no"?>
<svg
   xmlns:dc="http://purl.org/dc/elements/1.1/"
   xmlns:cc="http://creativecommons.org/ns#"
   xmlns:rdf="http://www.w3.org/1999/02/22-rdf-syntax-ns#"
   xmlns:svg="http://www.w3.org/2000/svg"
   xmlns="http://www.w3.org/2000/svg"
   xmlns:xlink="http://www.w3.org/1999/xlink"
   xmlns:sodipodi="http://sodipodi.sourceforge.net/DTD/sodipodi-0.dtd"
   xmlns:inkscape="http://www.inkscape.org/namespaces/inkscape"
   viewBox="0 0 16 16"
   version="1.1"
   id="svg90"
   sodipodi:docname="sc_validation.svg"
   inkscape:export-filename="/home/rizmut/Dokumen/Rizmut/Github/libreoffice-style-elementary/images_elementary/cmd/sc_validation.png"
   inkscape:export-xdpi="96"
   inkscape:export-ydpi="96"
   inkscape:version="0.92.3 (unknown)">
  <metadata
     id="metadata96">
    <rdf:RDF>
      <cc:Work
         rdf:about="">
        <dc:format>image/svg+xml</dc:format>
        <dc:type
           rdf:resource="http://purl.org/dc/dcmitype/StillImage" />
        <dc:title></dc:title>
      </cc:Work>
    </rdf:RDF>
  </metadata>
  <defs
     id="defs94">
    <radialGradient
       id="a-3"
       cx="64.575233"
       cy="48.605404"
       gradientTransform="matrix(0,0.39751491,0.4329035,0,-10.168068,-17.564338)"
       gradientUnits="userSpaceOnUse"
       r="31.000002">
      <stop
         offset="0"
         stop-color="#cdf87e"
         id="stop2416" />
      <stop
         offset=".26238"
         stop-color="#a2e34f"
         id="stop2418" />
      <stop
         offset=".66093999"
         stop-color="#68b723"
         id="stop2420" />
      <stop
         offset="1"
         stop-color="#1d7e0d"
         id="stop2422" />
    </radialGradient>
    <linearGradient
       inkscape:collect="always"
       xlink:href="#l"
       id="linearGradient10001"
       gradientUnits="userSpaceOnUse"
       gradientTransform="matrix(0.59435835,0,0,0.59991399,-19.26472,-0.032551)"
       x1="25.132275"
       y1="15.499894"
       x2="25.132275"
       y2="48.395687" />
    <linearGradient
       inkscape:collect="always"
       xlink:href="#l"
       id="linearGradient10003"
       gradientUnits="userSpaceOnUse"
       gradientTransform="matrix(0.59435835,0,0,0.59991399,-19.26472,-0.032551)"
       x1="25.132275"
       y1="15.499894"
       x2="25.132275"
       y2="48.395687" />
    <radialGradient
       id="radialGradient2409"
       gradientUnits="userSpaceOnUse"
       cy="3.99"
       cx="23.896"
       gradientTransform="matrix(0,0.87966,-1.1611,0,12.633,-21.084)"
       r="20.396999">
      <stop
         id="stop3244"
         style="stop-color:#f8b17e"
         offset="0" />
      <stop
         id="stop3246"
         style="stop-color:#e35d4f"
         offset=".26238" />
      <stop
         id="stop3248"
         style="stop-color:#c6262e"
         offset=".66094" />
      <stop
         id="stop3250"
         style="stop-color:#690b54"
         offset="1" />
    </radialGradient>
    <linearGradient
       id="linearGradient2411"
       y2="3.0816"
       gradientUnits="userSpaceOnUse"
       x2="18.379"
       gradientTransform="matrix(0.36857,0,0,0.36857,-0.84577,-0.84577)"
       y1="44.98"
       x1="18.379">
      <stop
         id="stop2492"
         style="stop-color:#791235"
         offset="0" />
      <stop
         id="stop2494"
         style="stop-color:#dd3b27"
         offset="1" />
    </linearGradient>
    <linearGradient
       id="linearGradient2406"
       y2="5.4675999"
       gradientUnits="userSpaceOnUse"
       x2="63.396999"
       gradientTransform="matrix(0.74324,0,0,0.74322,-38.23,10.609)"
       y1="-12.489"
       x1="63.396999">
      <stop
         id="stop4875"
         style="stop-color:#fff"
         offset="0" />
      <stop
         id="stop4877"
         style="stop-color:#fff;stop-opacity:0"
         offset="1" />
    </linearGradient>
  </defs>
  <sodipodi:namedview
     pagecolor="#ffffff"
     bordercolor="#666666"
     borderopacity="1"
     objecttolerance="10"
     gridtolerance="10"
     guidetolerance="10"
     inkscape:pageopacity="0"
     inkscape:pageshadow="2"
     inkscape:window-width="1366"
     inkscape:window-height="706"
     id="namedview92"
     showgrid="true"
     inkscape:zoom="20.85965"
     inkscape:cx="8.9989825"
     inkscape:cy="6.4619963"
     inkscape:window-x="0"
     inkscape:window-y="0"
     inkscape:window-maximized="1"
     inkscape:current-layer="g88">
    <inkscape:grid
       type="xygrid"
       id="grid903"
       spacingx="0.5"
       spacingy="0.5"
       empspacing="2" />
  </sodipodi:namedview>
  <linearGradient
     id="a"
     gradientUnits="userSpaceOnUse"
     x1="1.071"
     x2="10.542"
     xlink:href="#b"
     y1="7.053001"
     y2="-.013" />
  <linearGradient
     id="b">
    <stop
       offset="0"
       stop-color="#fff3cb"
       id="stop3" />
    <stop
       offset=".262"
       stop-color="#fdde76"
       id="stop5" />
    <stop
       offset=".661"
       stop-color="#f9c440"
       id="stop7" />
    <stop
       offset="1"
       stop-color="#e48b20"
       id="stop9" />
  </linearGradient>
  <radialGradient
     id="c"
     cx="32.5"
     cy="16.563"
     gradientTransform="matrix(.136 .32887 -.25782 .113 -3.123 -21.05)"
     gradientUnits="userSpaceOnUse"
     r="14.438"
     xlink:href="#b" />
  <filter
     id="d"
     color-interpolation-filters="sRGB"
     height="1.324"
     width="1.387"
     x="-.193"
     y="-.162">
    <feGaussianBlur
       stdDeviation=".678"
       id="feGaussianBlur13" />
  </filter>
  <radialGradient
     id="e"
     cx="6.703"
     cy="73.615997"
     gradientTransform="matrix(1.1067389 0 0 .24210121 .58267 -5.875327)"
     gradientUnits="userSpaceOnUse"
     r="7.228">
    <stop
       offset="0"
       id="stop16" />
    <stop
       offset="1"
       stop-opacity="0"
       id="stop18" />
  </radialGradient>
  <linearGradient
     id="f"
     gradientTransform="matrix(.19514764 0 0 .28355475 .61867 -1.505306)"
     gradientUnits="userSpaceOnUse"
     x1="31"
     x2="3.259"
     xlink:href="#g"
     y1="12.875"
     y2="24.893999" />
  <linearGradient
     id="g">
    <stop
       offset="0"
       stop-color="#fff"
       id="stop22" />
    <stop
       offset="1"
       stop-color="#fff"
       stop-opacity="0"
       id="stop24" />
  </linearGradient>
  <radialGradient
     id="h"
     cx="32.5"
     cy="16.563"
     gradientTransform="matrix(.09066712 .21924776 -.17188086 .07533371 7.373371 -6.721998)"
     gradientUnits="userSpaceOnUse"
     r="14.438"
     xlink:href="#g" />
  <linearGradient
     id="i"
     gradientTransform="matrix(.26726 0 0 1.15755 9.316 -10.704)"
     gradientUnits="userSpaceOnUse"
     x1="-32.957001"
     x2="-25.474001"
     y1="27.389"
     y2="27.389">
    <stop
       offset="0"
       stop-color="#2e3436"
       id="stop28" />
    <stop
       offset=".644"
       stop-color="#888a85"
       id="stop30" />
    <stop
       offset="1"
       stop-color="#555753"
       id="stop32" />
  </linearGradient>
  <linearGradient
     id="j"
     gradientTransform="matrix(.77602 .23906 -.31605 .56748 -20.168 4.55)"
     gradientUnits="userSpaceOnUse"
     x1="27.528"
     x2="30.42"
     y1="4.167"
     y2="2.949">
    <stop
       offset="0"
       stop-color="#eeeeec"
       id="stop35" />
    <stop
       offset=".789"
       stop-color="#fff"
       id="stop37" />
    <stop
       offset="1"
       stop-color="#eeeeec"
       id="stop39" />
  </linearGradient>
  <linearGradient
     id="k"
     gradientTransform="matrix(0.59435835,0,0,0.59991399,-19.26472,-0.032551)"
     gradientUnits="userSpaceOnUse"
     x1="25.132275"
     x2="25.132275"
     xlink:href="#l"
     y1="15.499894"
     y2="48.395687" />
  <linearGradient
     id="l"
     gradientTransform="matrix(.59435835 0 0 .59991399 -19.26472 -.032551)"
     gradientUnits="userSpaceOnUse"
     x1="25.132275"
     x2="25.132275"
     y1="15.499894"
     y2="48.395687">
    <stop
       offset="0"
       stop-color="#fafafa"
       id="stop43" />
    <stop
       offset="1"
       stop-color="#e2e1de"
       id="stop45" />
  </linearGradient>
  <g
     transform="matrix(-1,0,0,1,16,2)"
     id="g88">
    <g
       id="g8255">
      <rect
         id="rect48"
         y="-1.5"
         x="10.5"
         width="5"
         ry="0.491478"
         rx="0.42372701"
         height="4"
         style="fill:url(#linearGradient10001);stroke-width:1.33333004" />
      <path
         id="path50"
         transform="translate(0,-2)"
         d="M 0,0 V 1.0195312 15 16 H 16 V 15 0.5 C 16.000384,0.2236985 15.776301,-3.844e-4 15.5,0 Z M 15.001953,0.99804688 V 15 H 1 V 1.0136719 c 1.29591,-0.00644 12.394149,-0.015625 14.001953,-0.015625 z"
         inkscape:connector-curvature="0"
         style="opacity:0.32000002;fill:#030303"
         sodipodi:nodetypes="cccccccccccccc" />
    </g>
    <g
       transform="translate(-1.001953,1.0019531)"
       id="g56">
      <rect
         height="3.9999995"
         rx="0.42372701"
         ry="0.491478"
         width="11"
         x="3.5019529"
         y="-0.50195312"
         id="rect52"
         style="fill:url(#linearGradient10003);stroke-width:1.33333004" />
      <path
         d="M 3.001953,-0.99999998 V 0.01953122 3 4 H 15 V 3 -0.49999998 c 3.84e-4,-0.2763015 -0.223699,-0.50038442 -0.5,-0.5 z m 11,0.99804688 V 3 l -10,3.1e-6 V 0.01367192 c 1.29591,-0.00644 8.392196,-0.015625 10,-0.01562502 z"
         id="path54"
         inkscape:connector-curvature="0"
         style="opacity:0.32000002;fill:#030303"
         sodipodi:nodetypes="cccccccccccccc" />
    </g>
    <g
       transform="translate(-1.003906,9.0039061)"
       id="g62">
      <rect
         height="4.0019536"
         rx="0.42372701"
         ry="0.491478"
         width="10.998047"
         x="3.503906"
         y="-1.5039061"
         id="rect58"
         style="fill:url(#k);stroke-width:1.33333004" />
      <path
         d="m 3.003906,-0.0039061 v 1.0195312 2.9804688 1 l 11.998047,0.00195 v -1 -3.5 c 3.84e-4,-0.2763015 -0.223699,-0.5003844 -0.5,-0.5 z m 11,0.99999998 V 3.998047 l -10,-0.00195 V 1.0097658 c 1.29591,-0.00644 8.392196,-0.0136719 10,-0.0136719 z"
         transform="translate(0,-2)"
         id="path60"
         inkscape:connector-curvature="0"
         style="opacity:0.32000002;fill:#030303"
         sodipodi:nodetypes="cccccccccccccc" />
    </g>
    <g
       id="g10009"
       transform="translate(-10,4.9863281)" />
    <path
       inkscape:connector-curvature="0"
       style="fill:#9cde4a;stroke:#5ca12a;stroke-width:1;stroke-linecap:round;stroke-linejoin:round;stroke-miterlimit:4;stroke-dasharray:none"
       d="m 1.9690878,-1.4984435 c 0.1251807,-0.012518 0.2480142,0.048508 0.3129517,0.1658644 L 5.0086311,3.686383 6.7635076,2.2835772 c 0.1564758,-0.086062 0.3505058,-0.031295 0.4365675,0.1267454 l 0.7878558,1.0155282 c 0.086062,0.1564758 0.028166,0.3520704 -0.1283102,0.4381321 L 4.653431,6.5272015 C 4.6166592,6.5475433 4.5783226,6.5584966 4.5392036,6.5624085 4.4116758,6.5780561 4.2810185,6.5193777 4.2160811,6.3981089 L 0.53733405,-0.37181754 C 0.45127265,-0.52829337 0.5091684,-0.72388815 0.66564423,-0.80994986 L 1.8446896,-1.4624541 c 0.039119,-0.021124 0.082932,-0.033642 0.1251806,-0.037554 z"
       id="path18" />
    <g
       transform="matrix(-0.43424873,0,0,0.43424873,7.2299868,6.7700002)"
       id="layer1">
      <g
         id="g3275">
        <path
           inkscape:connector-curvature="0"
           id="path2555"
           style="fill:url(#radialGradient2409);stroke:url(#linearGradient2411);stroke-width:2.3028276;stroke-linecap:round;stroke-linejoin:round;stroke-miterlimit:4;stroke-dasharray:none"
           d="m 8,0.50183 c -4.1372,0 -7.4982,3.361 -7.4982,7.4982 3e-5,4.137 3.361,7.498 7.4982,7.498 4.137,0 7.498,-3.361 7.498,-7.498 0,-4.1372 -3.361,-7.4982 -7.498,-7.4982 z" />
        <path
           inkscape:connector-curvature="0"
           id="path2463"
           style="opacity:0.4;fill:none;stroke:url(#linearGradient2406);stroke-width:2.3028276;stroke-miterlimit:4;stroke-dasharray:none"
           d="M 14.5,7.9998 C 14.5,11.59 11.59,14.5 8.0001,14.5 4.4102,14.5 1.5,11.59 1.5,7.9998 1.5,4.41 4.4102,1.5 8.0001,1.5 11.59,1.5 14.5,4.41 14.5,7.9998 Z" />
      </g>
      <path
         inkscape:connector-curvature="0"
         id="path3360"
         style="opacity:0.2"
         d="M 2.8324477,8.5895468 H 13.195172 V 6.2867191 H 2.8324477 Z"
         sodipodi:nodetypes="ccccc" />
      <path
         inkscape:connector-curvature="0"
         id="path3249"
         style="fill:#ffffff"
         d="M 2.8324477,9.7409607 H 13.195172 V 7.438133 H 2.8324477 Z"
         sodipodi:nodetypes="ccccc" />
    </g>
  </g>
</svg>
